%%% 000-main.mp -- do not edit, generated automatically by 000-main.tex
verbatimtex
\documentclass [10pt]{article}
\begin {document}
etex;
beginfig(1);
LaTeX_unitlength := 1.0pt;
w := 20*LaTeX_unitlength;
h :=  20*LaTeX_unitlength;
Package.P("An important", "package")();
drawObject(P);
endfig;
verbatimtex
\end{document}
etex;
%%% the end.
end.
endinput;
